X:1
T:Si ritrovarla io giuro
T:Si ritrovarla io giuro
T:Cenerentola
T:Rossini
C:Rossini
L:1/8
Q:1/4=60
M:4/4
K:C
V:1 treble nm="Piano" snm="Pno."
V:1
 z4 ee/e/ de | cc z2 z4 | z cde dd z2 | z2 z A cccB | GG z2 z4 | z8 | z2 z d g2 z d | dG z G GGGA | %8
w: Prin- ci- pe più non|se- i:|Di tan- te scioc- che|si vuo- ti\-il mio pa-|laz- zo.||O- là, miei|fi- di! sia pron- to\-il nos- tro|
 BB z2 z def | ee z g fedc | A2 z2 fB z c | c2 G2 z4 | z8 | z8 | z8 |[Q:1/4=130] c4 G3 G | %16
w: coc- chio, e fra mo-|men- ti... co- sì po- te- ssi\-a-|ver l'a- li dei|ven- ti.||||sÌ, ri- tro-|
 d4 G3 G | e4 c2 z c | B4 z2 z[Q:1/4=30] (6:4:6g/4^f/4e/4d/4c/4B/4 | %19
w: var- la io|giu- ro. A-|mor, a- * * * * *|
[Q:1/4=130] A4 z2 z[Q:1/4=30] (6:4:6e/4d/4^c/4d/4e/4d/4 | %20
w: mor mi * * * * *|
[Q:1/4=130] B g2[Q:1/4=30] (3^f/e/a/ g/4b/4a/4g/4f/4a/4g/4f/4 (6:4:6e/d/B/d/c/A/ | %21
w: muo- * * * * * * * * * * * * * * * * * *|
[Q:1/4=130] G4 z4 | z4 z2 z3/2 G/ | G2 A/B/c/d/ e2 d/c/B/A/ | GG z2 z4 | G2 A/B/c/d/ e2 d/c/B/A/ | %26
w: ve:|se|fos- se * in * grem- bo * a *|Gio- ve|io la * ri- * tro- ve- * * *|
 G4 z2 G2 |[Q:1/4=60] B/A/^G/A/ c/B/A/B/ d/c/B/c/ e/d/c/d/ |[Q:1/4=130] e4 E2 z2 | z8 | z8 | z8 | %32
w: rò. se|fos- * * * se * in * grem- * * * bo * a *|Gio- ve||||
 z8 | z8 | z8 | z8 | z8 | z8 | z8 | z8 | z8 | z8 | z8 | z8 | z8 | z8 | z8 | z8 | z8 | z8 | z8 | %51
w: |||||||||||||||||||
 z8 | z8 | z8 | z8 | z8 | z8 | z8 | z8 | z8 | z8 | z8 | z8 | z8 | z8 | z8 | z8 | z8 | z8 | z8 | %70
w: |||||||||||||||||||
 z8 | z8 | z8 | z8 | z8 | z8 | z8 | z8 | z8 | z8 | z8 | z8 | z8 | z8 | z8 | z8 | z8 | z8 | z8 | %89
w: |||||||||||||||||||
 z8 | z8 | z8 | z8 | z8 | z8 | z8 | z8 | z8 | z8 | z8 | z8 | z8 | z8 | z8 | z8 | z8 | z8 | z8 | %108
w: |||||||||||||||||||
 z8 | z8 | z8 | z8 | z8 | z8 | z8 | z8 | z8 | z8 | z8 | z8 | z8 | z8 | z8 | z8 | z8 | z8 | z8 | %127
w: |||||||||||||||||||
 z8 | z8 | z8 | z8 | z8 | z8 | z8 | z8 | z8 | z8 | z8 | z8 | z8 | z8 | z8 | z8 | z8 | z8 | z8 | %146
w: |||||||||||||||||||
 z8 | z8 | z8 | z8 | z8 | z8 | z8 | z8 | z8 | z8 | z8 | z8 | z8 | z8 | z8 | z8 | z8 | z8 | z8 | %165
w: |||||||||||||||||||
 z8 | z8 | z8 | z8 | z8 | z8 | z8 | z8 | z8 | z8 | z8 | z8 | z8 | z8 | z8 | z8 | z8 | z8 | z8 | %184
w: |||||||||||||||||||
 z8 | z8 | z8 | z8 | z8 | z8 | z8 | z8 | z8 | z8 | z8 | z8 | z8 | z8 | z8 | z8 | z8 | z8 | z8 | %203
w: |||||||||||||||||||
 z8 | z8 | z8 | z8 | z8 | z8 | z8 | z8 | z8 | z8 | z8 | z8 | z8 | z8 | z8 | z8 | z8 | z8 | z8 | %222
w: |||||||||||||||||||
 z8 | z8 | z8 | z8 | z8 | z8 | z8 | z8 | z8 | z8 | z8 | z8 | z8 | z8 | z8 | z8 | z8 | z8 | z8 | %241
w: |||||||||||||||||||
 z8 | z8 | z8 | z8 | z8 | z8 | z8 | z8 | z8 | z8 | z8 | z8 | z8 | z8 | z8 | z8 | z8 | z8 | z8 | %260
w: |||||||||||||||||||
 z8 | z8 | z8 | z8 | z8 | z8 | z8 | z8 | z8 | z8 | z8 | z8 | z8 | z8 | z8 | z8 | z8 | z8 | z8 | %279
w: |||||||||||||||||||
 z8 | z8 | z8 | z8 | z8 | z8 | z8 | z8 | z8 | z8 | z8 | z8 | z8 | z8 | z8 | z8 | z8 | z8 | z8 | %298
w: |||||||||||||||||||
 z8 | z8 | z8 | z8 | z8 | z8 | z8 | z8 | z8 | z8 | z8 | z8 | z8 | z8 | z8 | z8 | z8 | z8 | z8 | %317
w: |||||||||||||||||||
 z8 | z8 | z8 | z8 | z8 | z8 | z8 | z8 | z8 | z8 | z8 | z8 | z8 | z8 | z8 | z8 | z8 | z8 | z8 | %336
w: |||||||||||||||||||
 z8 | z8 | z8 | z8 | z8 | z8 | z8 | z8 | z8 | z8 | z8 | z8 | z8 | z8 | z8 | z8 | z8 | z8 | z8 | %355
w: |||||||||||||||||||
 z8 | z8 | z8 | z8 | z8 | z8 | z8 | z8 | z8 | z8 | z8 | z8 | z8 | z8 | z8 | z8 | z8 | z8 | z8 | %374
w: |||||||||||||||||||
 z8 | z8 | z8 | z8 | z8 | z8 | z8 | z8 | z8 | z8 | z8 | z8 | z8 | z8 | z8 | z8 | z8 | z8 | z8 | %393
w: |||||||||||||||||||
 z8 | z8 | z8 | z8 | z8 | z8 | z8 | z8 | z8 | z8 | z8 | z8 | z8 | z8 | z8 | z8 | z8 | z8 | z8 | %412
w: |||||||||||||||||||
 z8 | z8 | z8 | z8 | z8 | z8 | z8 | z8 | z8 | z8 | z8 | z8 | z8 | z8 | z8 | z8 | z8 | z8 | z8 | %431
w: |||||||||||||||||||
 z8 |] %432
w: |

